polaris-icons/icons/newicons/GiftCardMajor.svg

<svg width="20" height="20" viewBox="0 0 20 20" fill="none" xmlns="http://www.w3.org/2000/svg">
<path fill-rule="evenodd" clip-rule="evenodd" d="M8.25 2C8.93136 2 9.54906 2.27258 10 2.71464C10.4509 2.27258 11.0686 2 11.75 2C13.1307 2 14.25 3.11929 14.25 4.5C14.25 4.85555 14.1758 5.19377 14.042 5.5H15C16.1046 5.5 17 6.39543 17 7.5V8.5C17 9.24028 16.5978 9.88663 16 10.2324V14C16 15.6569 14.6569 17 13 17H7C5.34315 17 4 15.6569 4 14V10.2324C3.4022 9.88663 3 9.24028 3 8.5V7.5C3 6.39543 3.89543 5.5 5 5.5H5.95802C5.82422 5.19377 5.75 4.85555 5.75 4.5C5.75 3.11929 6.86929 2 8.25 2ZM9.25 4.5C9.25 5.05228 8.80228 5.5 8.25 5.5C7.69772 5.5 7.25 5.05228 7.25 4.5C7.25 3.94772 7.69772 3.5 8.25 3.5C8.80228 3.5 9.25 3.94772 9.25 4.5ZM11.75 3.5C11.1977 3.5 10.75 3.94772 10.75 4.5C10.75 5.05228 11.1977 5.5 11.75 5.5C12.3023 5.5 12.75 5.05228 12.75 4.5C12.75 3.94772 12.3023 3.5 11.75 3.5ZM10.75 7H15C15.2761 7 15.5 7.22386 15.5 7.5V8.5C15.5 8.77614 15.2761 9 15 9H10.75V7ZM9.25 7H5C4.72386 7 4.5 7.22386 4.5 7.5V8.5C4.5 8.77614 4.72386 9 5 9H9.25V7ZM9.25 10.5H5.5V14C5.5 14.8284 6.17157 15.5 7 15.5H9.25V10.5ZM10.75 15.5H13C13.8284 15.5 14.5 14.8284 14.5 14V10.5H10.75V15.5Z" fill="black"/>
</svg>

<svg viewBox="0 0 20 20" fill="none" xmlns="http://www.w3.org/2000/svg"><path fill-rule="evenodd" clip-rule="evenodd" d="M8.25 2c.681 0 1.3.273 1.75.715a2.5 2.5 0 0 1 4.042 2.785h.958a2 2 0 0 1 2 2v1a2 2 0 0 1-1 1.732v3.768a3 3 0 0 1-3 3h-6a3 3 0 0 1-3-3v-3.768a2 2 0 0 1-1-1.732v-1a2 2 0 0 1 2-2h.958a2.5 2.5 0 0 1 2.292-3.5Zm1 2.5a1 1 0 1 1-2 0 1 1 0 0 1 2 0Zm2.5-1a1 1 0 1 0 0 2 1 1 0 0 0 0-2Zm-1 3.5h4.25a.5.5 0 0 1 .5.5v1a.5.5 0 0 1-.5.5h-4.25v-2Zm-1.5 0h-4.25a.5.5 0 0 0-.5.5v1a.5.5 0 0 0 .5.5h4.25v-2Zm0 3.5h-3.75v3.5a1.5 1.5 0 0 0 1.5 1.5h2.25v-5Zm1.5 5h2.25a1.5 1.5 0 0 0 1.5-1.5v-3.5h-3.75v5Z" fill="#000"/></svg>
